X:349
T:Woods of Old Limerick, The
R:jig
S:EB
H:Also played in G, #228
Z:id:hn-jig-349
M:6/8
K:D
FDD EFG|Add cAG|FDD EFG|EA,A, EFG|
FDD EFG|Add cAG|F2D EAG|1 EDC D2E:|2 EDC D2e||
|:fdc ded|cA^G Aef|gec def|gec d2e|
fed ecA|~d3 cAG|F2D EAG|1 EDC D2e:|2 EDC D2E||

